assets/appsec.svg

<svg width="28" height="28" viewBox="0 0 24 24" fill="none" xmlns="http://www.w3.org/2000/svg">
<path d="M3.68578 3.96152C3.39944 4.06691 3.17068 4.15467 3.0137 4.21601C2.81443 4.309 2.68245 4.37563 2.67284 4.41328C2.66323 4.45093 2.94168 10.0306 5.44237 15.0389C8.00288 20.1669 11.3876 21.697 11.9991 21.9387C12.6106 21.697 15.9954 20.1669 18.5559 15.0389C21.0565 10.0306 21.3565 4.49445 21.3254 4.41326C21.2943 4.33208 21.1417 4.28278 20.9826 4.21544C20.8243 4.15373 20.5936 4.06543 20.3049 3.95944C19.7272 3.74742 18.9179 3.4648 17.9911 3.18247C16.1326 2.61625 13.8211 2.05731 11.9619 2.06105C10.1166 2.06477 7.82373 2.62375 5.98039 3.18807C5.06125 3.46946 4.25858 3.75067 3.68578 3.96152Z" stroke="currentColor" stroke-width="1.5"/>
<path d="M5.44204 6.27876C5.43618 6.12911 5.5266 5.9945 5.66646 5.95039L10.3883 4.46112C10.5983 4.39487 10.808 4.55384 10.808 4.80483V18.0558C10.808 18.0913 10.7929 18.1142 10.7772 18.1254C10.7627 18.1357 10.7437 18.1395 10.72 18.1258C10.0605 17.7469 8.65617 16.1311 7.34582 13.0483C5.98557 9.84812 5.48204 7.29986 5.44204 6.27876Z" stroke="currentColor"/>
<path d="M13.0179 4.30762C13.0179 4.30762 14.7573 4.57194 15.8486 4.91709C16.939 5.262 18.0106 5.65709 18.4031 5.80417C18.4978 5.83966 18.5605 5.93451 18.5582 6.0438C18.5415 6.81859 18.0179 9.54319 16.575 12.9382C14.9129 16.8492 13.0179 18.165 13.0179 18.165" stroke="currentColor" stroke-linecap="round"/>
</svg>

<svg width="28" height="28" viewBox="0 0 24 24" fill="none" xmlns="http://www.w3.org/2000/svg">
  <path d="m3.69 3.96-.68.26q-.31.14-.34.2c0 .03.27 5.61 2.77 10.62C8 20.17 11.4 21.7 12 21.94c.61-.24 4-1.77 6.56-6.9 2.5-5 2.8-10.55 2.77-10.63-.04-.08-.19-.13-.35-.2A37 37 0 0 0 18 3.19a23 23 0 0 0-6.03-1.12c-1.84 0-4.14.56-5.98 1.13-.92.28-1.72.56-2.3.77Z" stroke="currentColor" stroke-width="1.5"/>
  <path d="M5.44 6.28c0-.15.09-.29.23-.33l4.72-1.49c.2-.07.42.1.42.34v13.26q0 .04-.03.07h-.06c-.66-.38-2.06-2-3.37-5.08-1.36-3.2-1.87-5.75-1.9-6.77Z" stroke="currentColor"/>
  <path d="M13.02 4.3s1.74.27 2.83.62 2.16.74 2.55.88q.16.07.16.24c-.02.78-.54 3.5-1.98 6.9-1.67 3.9-3.56 5.23-3.56 5.23" stroke="currentColor" stroke-linecap="round"/>
</svg>
